apps/frontend/src/assets/icons/settingsIcon.svg

<?xml version="1.0" encoding="UTF-8"?>
<svg id="_Слой_2" data-name="Слой 2" xmlns="http://www.w3.org/2000/svg" viewBox="0 0 254 254">
  <defs>
    <style>
      .cls-1 {
        fill: #f7f9fc;
      }

      .cls-1, .cls-2 {
        stroke-width: 0px;
      }

      .cls-2 {
        fill: #1d1d1f;
      }
    </style>
  </defs>
  <g id="_Слой_1-2" data-name="Слой 1">
    <g>
      <circle class="cls-1" cx="127" cy="127" r="102.63"/>
      <g>
        <path class="cls-2" d="M127,0C56.86,0,0,56.86,0,127s56.86,127,127,127,127-56.86,127-127S197.14,0,127,0ZM127,227.06c-55.26,0-100.06-44.8-100.06-100.06S71.74,26.94,127,26.94s100.06,44.8,100.06,100.06-44.8,100.06-100.06,100.06Z"/>
        <path class="cls-2" d="M166.77,98.82v-11.59h-11.59c-5.84-4.15-12.63-7.04-19.98-8.28l-8.19-8.19-8.19,8.19c-7.35,1.24-14.14,4.13-19.98,8.28h-11.59v11.59c-4.15,5.84-7.04,12.63-8.28,19.98l-8.19,8.19,8.19,8.19c1.24,7.35,4.13,14.14,8.28,19.98v11.59h11.59c5.84,4.15,12.63,7.04,19.98,8.28l8.19,8.19,8.19-8.19c7.35-1.24,14.14-4.13,19.98-8.28h11.59v-11.59c4.15-5.84,7.04-12.63,8.28-19.98l8.19-8.19-8.19-8.19c-1.24-7.35-4.13-14.14-8.28-19.98Z"/>
      </g>
    </g>
  </g>
</svg>

<svg width="254" height="254" viewBox="0 0 254 254" fill="none" xmlns="http://www.w3.org/2000/svg">
<path d="M127 0C56.86 0 0 56.86 0 127C0 197.14 56.86 254 127 254C197.14 254 254 197.14 254 127C254 56.86 197.14 0 127 0ZM127 227.06C71.74 227.06 26.94 182.26 26.94 127C26.94 71.74 71.74 26.94 127 26.94C182.26 26.94 227.06 71.74 227.06 127C227.06 182.26 182.26 227.06 127 227.06Z" fill="#1D1D1F"/>
<path d="M166.77 98.82V87.23H155.18C149.34 83.08 142.55 80.19 135.2 78.95L127.01 70.76L118.82 78.95C111.47 80.19 104.68 83.08 98.8398 87.23H87.2498V98.82C83.0998 104.66 80.2098 111.45 78.9698 118.8L70.7798 126.99L78.9698 135.18C80.2098 142.53 83.0998 149.32 87.2498 155.16V166.75H98.8398C104.68 170.9 111.47 173.79 118.82 175.03L127.01 183.22L135.2 175.03C142.55 173.79 149.34 170.9 155.18 166.75H166.77V155.16C170.92 149.32 173.81 142.53 175.05 135.18L183.24 126.99L175.05 118.8C173.81 111.45 170.92 104.66 166.77 98.82Z" fill="#1D1D1F"/>
</svg>
